X:1
T:James Gibb editions
T:Der Herr ist meine Stärke, SWV 345 - Schütz
T:#
%%score [ 1 2 ] 3 4
L:1/8
Q:1/4=100
M:4/4
K:C
V:1 treble nm="Violin I" snm="Violin I"
V:2 treble nm="Violin II" snm="Violin II"
V:3 treble nm="Soprano" snm="Soprano"
V:4 bass nm="Continuo" snm="Continuo"
V:1
 z8 | z8 | z8 | z8 |[M:4/4] z8 | z8 | z8 | z8 | z8 |[M:4/4] z8 | z8 | z8 | z8 | %13
[M:4/4][K:treble] z8 |"^Symphonia" z4 z2 gg | ag f>g e2 z B | c2 dd e/G/A/B/ c/d/e/^f/ | %17
 g2 z2 z2 z B | c2 dd e/B/c/d/ e/f/g/a/ | d4 c2 z A | B2 ^cc d/D/E/^F/ G/A/B/=c/ | %21
 d/^F/G/A/ B/c/d/e/ ^fd g2 | g3 ^f g2 z2 | z8 | a2 z2 z ^f ef | g2 z2 z e de | f2 d3 e f2 | %27
 e4 e2 z2 | z e de ^f2 z2 | z4 z e d^c | d2 z2 z4 | z4 z2 z ^G/G/ | AA/A/ BB/B/ cc/c/ dd/d/ | %33
 e/f/g/f/ ed ^c d2 c | d2 z d/d/ cc/c/ BB/B/ | A/B/c/B/ AA/e/ e/d/c/d/ ee | e8 || %37
[M:3/2][Q:1/4=200] z12 | z12 |[M:3/2][Q:1/4=200][Q:1/4=200][Q:1/4=200][Q:1/4=200] z12 | z12 | z12 | %42
 z12 | z12 | z12 |[M:3/2] z12 | z12 | z12 | z12 | z12 | z12 | z12 |[M:3/2] z12 | z12 | z12 | z12 | %56
 z12 |[M:3/2] z12 | z12 | z12 | z12 | G4 B2 d2 c2 B2 | A4 A4 z4 | d4 e2 g2 f2 e2 | d4 d4 z4 | z12 | %66
 e4 e2 c2 d2 e2 | f4 f4 z4 | e4 f2 a2 g2 f2 | e12 | d4 d4 ^c4 | d8 z4 | z12 | z4 c2 d2 e2 f2 | %74
 d4 d2 e2 d4 | c4 B8 | A4 e2 ^f2 g2 a2 | ^f4 d4 z4 | z12 | z12 | z12 | z4 d2 e2 ^f2 g2 | %82
 e4 e2 d2 =f4 | e4 d8 | c8 z4 | e4 f2 a2 g2 f2 | e8 z4 | e4 e2 c2 d2 e2 | f4 f4 z4 | d4 d6 d2 | %90
 d8 z4 | z12 | z4 d2 e2 f2 g2 | e4 c2 c2 e4 | d4 c8 | !fermata!B12 |] %96
V:2
 z8 | z8 | z8 | z8 |[M:4/4] z8 | z8 | z8 | z8 | z8 |[M:4/4] z8 | z8 | z8 | z8 | %13
[M:4/4][K:treble] z8 | z4 dd e/d/c/B/ | Ac c>B c2 z2 | z4 z2 z A | B2 ^cc d/A/B/c/ d/e/^f/g/ | %18
 a2 z2 z2 z G | A2 BB c/G/A/B/ c/d/e/^f/ | g2 z G ^FE/D/ GF/E/ | %21
 A/D/E/^F/ G/A/B/c/ d/A/B/^c/ d/e/^f/g/ | A4 G2 z2 | z8 | z4 d2 z2 | z d cd ecAc | c2 F2 D3 A/B/ | %27
 c4 c2 z2 | z8 | z d cd ecAG | ^F2 z2 z4 | z8 | z2 z ^G/G/ AA/A/ BB/B/ | cc z d e/f/g/f/ e2 | %34
 dA/A/ BB/B/ EE/E/ ee/e/ | e/d/c/d/ ee/c/ c/B/A/B/ cc | B8 ||[M:3/2] z12 | z12 |[M:3/2] z12 | z12 | %41
 z12 | z12 | z12 | z12 |[M:3/2] z12 | z12 | z12 | z12 | z12 | z12 | z12 |[M:3/2] z12 | z12 | z12 | %55
 z12 | z12 |[M:3/2] z12 | z12 | z12 | z12 | D4 G2 B2 A2 G2 | ^F4 F4 z4 | B4 c2 e2 d2 c2 | %64
 B4 B4 z4 | z12 | c4 c2 G2 A2 B2 | c4 c4 z4 | c4 c2 f2 e2 d2 | c12 | _B4 A4 A4 | A8 z4 | %72
 z4 B2 c2 d2 e2 | c4 A2 B2 c2 d2 | B4 B2 c2 B4 | A4 A6 ^G2 | A8 z4 | z4 A2 B2 c2 d2 | B4 G4 z4 | %79
 z12 | z12 | z4 B2 c2 d2 B2 | c4 c2 B2 A4 | c4 c6 B2 | c8 z4 | c4 c2 f2 e2 d2 | c8 z4 | %87
 c4 c2 G2 A2 B2 | c4 c4 z4 | B4 A6 A2 | B4 d2 e2 f2 g2 | e4 c4 z4 | z4 B2 c2 d2 e2 | c4 G2 G2 c4 | %94
 d4 e8 | !fermata!d12 |] %96
V:3
"^Exodus15:2,11; \nPsalm 104:33""^Der Herr ist meine Stärke, SWV 345""^Heinrich Schütz\n(1585-1672)" z2 z D GABc | %1
w: Der Herr ist mei- ne|
 A4 G2 GA | Bcdd d3 ^c | d2 z A B=cdc | B4 A2 z ^F | G2 A2 B2 z e | dc d2 c2 z D | E2 ^F2 G2 z B | %8
w: Stär- ke, mei- ne|Stär- ke und mein Lob ge-|sang, mein Lob- ge- sang und|mein Heil. Er|ist mein Gott, ich|will ihn prei- sen, er|ist mein Gott, ich|
 AG A2 G2 GG | AG F>G E2 z ^F | ^G2 AA B4 | A2 ^FF =G=F E>E | D2 z E ^F2 GG | %13
w: will ihn prei- sen, er ist|mei- nes Va- ters Gott, ich|will ihn er- he-|ben, er ist mei- nes Va- ters|Gott, ich will ihn er-|
 (A/D/E/^F/ G/A/B/^c/ d/A/B/c/ d/e/^f/g/ | A4) G4 | z8 | z8 |[M:4/4] z8 | z8 | z8 | z8 | %21
w: he\- * * * * * * * * * * * * * * *|* ben.|||||||
[M:4/4] z8 | z8 | d2 z2 z G^FG | AEDE ^F2 z2 | z4 z GFG | A2 _B3 A F2 | G4 GGFG | A2 z2 z AGA | %29
w: ||Herr, wer ist dir|gleich, wer ist dir gleich,|wer ist dir|gleich un- ter den|Göt- tern, wer ist dir|gleich, wer ist dir|
 B2 z2 z G^FG | A2 z D/D/ EE/E/ ^FF/F/ | GG/G/ AA/A/ (B/c/) (d/c/) BB | A2 z2 z4 | z4 z2 z E/E/ | %34
w: gleich, wer ist dir|gleich, der so mäch- tig, so hei- lig, so|schreck- lich, so löb- lich, so wun\- * der\- * thä- tig|ist,|der so|
 ^FF/F/ ^GG/G/ AA/A/ BB/B/ | (c/d/) (e/d/) cc/A/ (A/B/) (c/B/) AA | ^G4 z4 || %37
w: mäch- tig, so hei- lig, so schreck- lich, so lob- lich, so|wun\- * der\- * thä- tig, so wun\- * der\- * thä- tig|ist!|
[M:3/2] =G4 A2 c2 B2 A2 | G4 G4 z4 |[M:3/2] B4 B2 G2 A2 B2 | c12 | B4 A4 A4 | G8 z4 | %43
w: Ich will dem Her- ren|sin- gen,|sin- gen will ich dem|Herrn|mein Le- ben|lang,|
 B4 B2 d2 c2 B2 | A4 A4 z4 | c4 c2 A2 B2 c2 | d12 | c4 B4 B4 | A8 z4 | F4 E6 E2 | D4 A2 B2 c2 d2 | %51
w: ich will dem Her- ren|sin- gen,|sin- gen will ich dem|Herrn|mein Le- ben|lang,|mein Le- ben|lang und mei- nen Gott|
 B4 G4 z4 | z4 c2 d2 e2 f2 | d4 B2 c2 d2 e2 | c4 A2 c2 d4 | c4 B8 | A4 E2 ^F2 G2 A2 | %57
w: lo- ben,|und mei- nen Gott|lo- ben, mei- nen Gott|lo- ben, so lang|ich hie|bin, und mei- nen Gott|
 ^F4 D2 B2 c2 d2 | B4 G2 E2 F2 G2 | E4 C2 D2 E4 | G4 A8 | G8 z4 | A4 A2 ^F2 G2 A2 | B4 z4 z4 | %64
w: lo- ben, mei- nen Gott|lo- ben, mei- nen Gott|lo- ben, so lang|ich hie|bin,|sin- gen will ich dem|Herrn,|
 B4 B2 G2 A2 B2 | c8 z4 | G4 G2 E2 F2 G2 | A4 A4 z4 | G4 A2 c2 B2 A2 | G12 | G4 F4 E4 | %71
w: sin- gen will ich dem|Herrn,|ich will dem Her- ren|sin- gen,|sin- gen will ich dem|Herrn|mein Le- ben|
 ^F4 A2 B2 c2 d2 | B4 G4 z4 | z12 | z12 | z4 B2 c2 d2 e2 | ^c4 A4 z4 | z12 | z4 D2 E2 F2 G2 | %79
w: lang und mei- nen Gott|lo- ben,|||und mei- nen Gott|lo- ben,||und mei- nen Gott|
 E4 C2 A2 B2 c2 | A4 A2 G2 F4 | E4 D8 | C8 z4 | z12 | z12 | G4 A2 c2 B2 A2 | G8 z4 | %87
w: lo- ben, mei- nen Gott|lo- ben, so lang|ich hie|bin,|||sin- gen will ich dem|Herrn,|
 G4 G2 E2 F2 G2 | A4 A4 z4 | G4 G4 ^F4 | G8 z4 | z4 G2 A2 B2 c2 | B4 G4 z4 | z4 E4 G4 | G4 G8 | %95
w: ich will dem Her- ren|sin- gen|mein Le- ben|lang|und mei- nen Gott|lo- ben,|so lang|ich hie|
 !fermata!G12 |] %96
w: bin.|
V:4
 G,2 F,2 E,2 B,,2 | C,2 D,2 G,2 F,2 | E,2 D,2 G,2 A,2 | D,2 =C,2 B,,2 A,,2 | D,2 E,2 A,,2 D,2 | %5
w: |||* 6 6 *||
w: |||||
 E,2 ^F,2 G,2 E,2 | !courtesy!=F,A, G,2 C,2 B,,2 | C,2 D,2 E,2 B,,2 | C,E, D,2 G,,2 E,2 | %9
w: ||||
w: ||||
 ^C,2 D,2 A,,B,,=C,D, | E,2 F,2 D,2 E,2 | A,,2 D,2 B,,2 C,2 | G,,A,,B,,C, D,2 E,2 | %13
w: ||||
w: ||||
 ^F,2 E,2 D,2 B,,2 | C,2 D,2 G,,2 C,2 | F,E, x-x C,E,F,G, | A,2 B,2 C2 A,2 | G,2 E,2 D,2 B,,2 | %18
w: ||* 6 7 * 6 * *||* 6 * *|
w: |||||
 A,,2 =F,2 E,2 C,2 | F,2 G,2 C2 A,2 | G,2 E,2 D,2 E,2 | ^F,2 E,2 D,2 B,,2 | C,2 D,2 G,,2 E,^F, | %23
w: ||* 6 * *|6 * * *||
w: |||||
 G,2 ^F,2 E,2 D,2 | ^C,4 D,2 =C,2 | B,,4 C,2 D,C, | F,,2 _B,,3 C, D,2 | C,4 C,4 | ^C,4 D,4 | %29
w: |||* * 6 *|||
w: ||||||
 G,,4 C,2 D,E, | D,2 B,,2 C,2 D,2 | E,2 ^F,2 G,D, E,2 | A,,2 E,2 A,F,D,G, | C,2 CB, A,G, A,2 | %34
w: * * * 6|* 6 * *||* * * * 6 *||
w: |||||
 D,2 B,,2 A,,2 ^G,,2 | A,,4 A,,4 | E,8 ||[M:3/2] C,4 F,,2 G,,2 A,,2 B,,2 | C,4 C,2 D,2 E,2 F,2 | %39
w: * 6 * *|||||
w: |||||
[M:3/2] G,4 G,2 F,2 E,2 D,2 | C,2 B,,2 A,,2 G,,2 F,,4 | G,,4 D,8 | G,,8 z4 | %43
w: ||||
w: ||||
 G,,4 G,,2 A,,2 B,,2 C,2 | D,4 D,2 E,2 F,2 G,2 | A,4 A,2 G,2 F,2 E,2 | D,2 C,2 B,,2 A,,2 G,,4 | %47
w: ||||
w: ||||
 A,,4 E,8 | A,,8 G,,4- | G,,4 x4- x4 | D,12 | G,,4 G,,2 A,,2 B,,2 C,2 | A,,4 F,,8 | G,,12 | %54
w: ||* 4|||||
w: |||||||
 A,,8 D,4- | D,4 x4- x4 | A,,12 | D,8 E,2 ^F,2 | G,8 G,,4 | C,6 B,,2 A,,4 | G,,4 D,8 | %61
w: |* 4||* 6 6||||
w: |||||||
 G,,4 G,,2 A,,2 B,,2 C,2 | D,4 D,2 C,2 B,,2 A,,2 | G,,4 C,2 D,2 E,2 F,2 | G,4 G,2 F,2 E,2 D,2 | %65
w: |* * * 6 *||* * * 6 *|
w: ||||
 C,8 z4 | C,4 C,2 B,,2 A,,2 G,,2 | F,,4 F,,4 z4 | C,4 F,,2 G,,2 A,,2 B,,2 | C,12 | %70
w: |* * * 6 *||||
w: |||||
 G,,4 A,,4- A,,4 | D,,12 | G,,12 | A,,12 | B,,8 C,4 | D,4 x4- x4 | A,,12 | D,12 | G,,12 | %79
w: * 6 *|||||* 4||||
w: * 4 *|||||||||
 C,8 D,2 E,2 | F,4 F,2 E,2 D,4 | C,4 G,,8 | C,8 F,,4- | F,,4 x4- x4 | C,8 z4 | %85
w: * 6 6||||* 4||
w: ||||||
 C,4 F,,2 G,,2 A,,2 B,,2 | C,8 z4 | C,4 C,2 B,,2 A,,2 G,,2 | F,,8 G,,4- | G,,4 x4- x4 | G,,12 | %91
w: ||* * * 6 *||* 4||
w: ||||||
 C,12 | G,12 | C,8 C,4 | B,,4 C,8 | !fermata!G,,12 |] %96
w: |||||
w: |||||

